app/images/corn-icon.svg

<svg width="65" height="65" viewBox="0 0 65 65" fill="none" xmlns="http://www.w3.org/2000/svg">
<path d="M29.25 32.5H22.165C24.765 34.125 27.1375 35.9775 29.25 37.96V32.5ZM16.25 29.25C17.1275 12.61 23.9525 0 32.5 0C41.145 0 48.0025 12.805 48.75 29.64C53.625 27.3975 59.0525 26 65 26C46.3125 34.3525 52.8125 65 32.5 65C13 65 19.2725 34.3525 0 26C5.915 26 11.375 27.3 16.25 29.25ZM29.25 29.25V22.75H20.28L19.5975 29.25H29.25ZM29.25 19.5V13H22.9125C22.1 14.95 21.45 17.1275 20.8975 19.5H29.25ZM29.25 9.75V4.225C27.4625 5.2975 25.8375 7.215 24.375 9.75H29.25ZM32.5 3.25V9.75H35.75V13H32.5V19.5H39V22.75H32.5V29.25H42.25V32.5H32.5V39H39V42.25H33.2475C37.115 46.9625 39.4875 52 40.04 55.9975C43.2575 50.57 45.37 41.73 45.5 31.72C45.305 16.25 39.4225 3.25 32.5 3.25Z" fill="#A61D1D"/>
</svg>

<svg width="65" height="65" fill="none" xmlns="http://www.w3.org/2000/svg"><path d="M29.25 32.5h-7.085a46.023 46.023 0 0 1 7.085 5.46V32.5Zm-13-3.25C17.128 12.61 23.953 0 32.5 0c8.645 0 15.502 12.805 16.25 29.64C53.625 27.398 59.053 26 65 26c-18.688 8.352-12.188 39-32.5 39C13 65 19.273 34.352 0 26c5.915 0 11.375 1.3 16.25 3.25Zm13 0v-6.5h-8.97l-.683 6.5h9.653Zm0-9.75V13h-6.337c-.813 1.95-1.463 4.128-2.015 6.5h8.352Zm0-9.75V4.225c-1.788 1.073-3.413 2.99-4.875 5.525h4.875Zm3.25-6.5v6.5h3.25V13H32.5v6.5H39v3.25h-6.5v6.5h9.75v3.25H32.5V39H39v3.25h-5.752c3.867 4.712 6.24 9.75 6.792 13.748 3.218-5.428 5.33-14.268 5.46-24.278-.195-15.47-6.078-28.47-13-28.47Z" fill="#A61D1D"/></svg>
